svgs/duotone/circle-b.svg

<svg xmlns="http://www.w3.org/2000/svg" viewBox="0 0 512 512"><!--! Font Awesome Pro 6.5.1 by @fontawesome - https://fontawesome.com License - https://fontawesome.com/license (Commercial License) Copyright 2023 Fonticons, Inc. --><defs><style>.fa-secondary{opacity:.4}</style></defs><path class="fa-secondary" d="M256 512A256 256 0 1 0 256 0a256 256 0 1 0 0 512zM160 152c0-13.3 10.7-24 24-24h92c42 0 76 34 76 76c0 16.2-5.1 31.3-13.8 43.7C356.3 261.6 368 283.4 368 308c0 42-34 76-76 76H184c-13.3 0-24-10.7-24-24V256 152zm144 52c0-15.5-12.5-28-28-28H208v56h68c15.5 0 28-12.5 28-28zM208 336h84c15.5 0 28-12.5 28-28s-12.5-28-28-28H276 208v56z"/><path class="fa-primary" d="M184 128c-13.3 0-24 10.7-24 24V256 360c0 13.3 10.7 24 24 24H292c42 0 76-34 76-76c0-24.6-11.7-46.4-29.8-60.3c8.7-12.4 13.8-27.4 13.8-43.7c0-42-34-76-76-76H184zm92 104H208V176h68c15.5 0 28 12.5 28 28s-12.5 28-28 28zm-68 48h68 16c15.5 0 28 12.5 28 28s-12.5 28-28 28H208V280z"/></svg>

<svg xmlns="http://www.w3.org/2000/svg" viewBox="0 0 512 512"><!--! Font Awesome Pro 6.1.1 by @fontawesome - https://fontawesome.com License - https://fontawesome.com/license (Commercial License) Copyright 2022 Fonticons, Inc. --><defs><style>.fa-secondary{opacity:.4}</style></defs><path class="fa-primary" d="M337.9 247.8C346.7 235.4 352 220.3 352 204C352 162.1 317.9 128 276 128H184C170.8 128 160 138.8 160 152v208C160 373.3 170.8 384 184 384h108c41.91 0 76-34.09 76-76C368 283.4 356.1 261.7 337.9 247.8zM208 176h68c15.44 0 28 12.56 28 28S291.4 232 276 232H208V176zM292 336H208V280h84C307.4 280 320 292.6 320 308S307.4 336 292 336z"/><path class="fa-secondary" d="M292 280H208v56h84C307.4 336 320 323.4 320 308S307.4 280 292 280zM304 204c0-15.44-12.56-28-28-28H208v56h68C291.4 232 304 219.4 304 204zM256 0C114.6 0 0 114.6 0 256s114.6 256 256 256s256-114.6 256-256S397.4 0 256 0zM292 384H184C170.8 384 160 373.3 160 360v-208C160 138.8 170.8 128 184 128h92C317.9 128 352 162.1 352 204c0 16.35-5.301 31.41-14.12 43.82C356.1 261.7 368 283.4 368 308C368 349.9 333.9 384 292 384z"/></svg>
